svg/fluentui-system-icons/ic_fluent_text_align_center_rotate_270_24_regular.svg

<svg width="24" height="24" viewBox="0 0 24 24" fill="none" xmlns="http://www.w3.org/2000/svg">
<path d="M5.75 20C5.33579 20 5 19.6642 5 19.25V4.75C5 4.33579 5.33579 4 5.75 4C6.16421 4 6.5 4.33579 6.5 4.75V19.25C6.5 19.6642 6.16421 20 5.75 20ZM18.75 18C18.3358 18 18 17.6642 18 17.25V6.75C18 6.33579 18.3358 6 18.75 6C19.1642 6 19.5 6.33579 19.5 6.75V17.25C19.5 17.6642 19.1642 18 18.75 18ZM11.5 21.25C11.5 21.6642 11.8358 22 12.25 22C12.6642 22 13 21.6642 13 21.25V2.75C13 2.33579 12.6642 2 12.25 2C11.8358 2 11.5 2.33579 11.5 2.75V21.25Z" fill="#212121"/>
</svg>

<svg xmlns="http://www.w3.org/2000/svg" width="24" height="24"><path d="M5.75 20a.75.75 0 0 1-.75-.75V4.75a.75.75 0 0 1 1.5 0v14.5a.75.75 0 0 1-.75.75Zm13-2a.75.75 0 0 1-.75-.75V6.75a.75.75 0 0 1 1.5 0v10.5a.75.75 0 0 1-.75.75Zm-7.25 3.25a.75.75 0 0 0 1.5 0V2.75a.75.75 0 0 0-1.5 0v18.5Z"/></svg>
